X:9085
T:La trova de los novios
C:Tradicional
S:Música Tradicional Asturiana, (C) Tello & Tito. Asturies, 2001.
S:http://pagina.de/MusTradAst <telloytito@asturies.org>
N:Canción
A:Asturies
Z:DyC en Teberga
M:3/8
L:1/8
Q:3/8=60
K:F
dd
|: d2 c|
[M:2/4]BA AB|
[M:3/8]
c2 B|d A2-|AAB|c2 B|c d2-|ddc|B2 A|G F2-|F3-|[1 F dd :|[2 F z2|
"equivalencias..."
|d2 c|BAA|BcB|dA2|"y sigue igual..."
|z3|
"o tambien..."
[M:2/4]
[Q:1/4=80]
|d3 c|BA AB|c3 B|d A3|"y sigue igual..."


